X: 11167
T: Duncan Johnstone
R: hornpipe
M: 4/4
K: Adorian
|:e2|Aeed edde|eABd e2 g2|GddB dBBd|egdg BdGB|
Aeed edBd|eABd e2 g2|eaag egBd|eAAG A2:|
|:GB|Aaag aeef|gefd e2 dB|GddB dGBd|egdg BdGB|
[1 Aaag aedf|gefd e2 dB|A2 AB egBd|eAAG A2:|
[2 Aeed edBd|eABd e2 g2|eaag egBd|eAAG A2||
|:ag|eAAE Aeed|BAAB e2 ge|dGGD GBBd|egdg B2 fg|
eAAE Aeed|BAAB e2 gb|eaag egBd|eAAG A2:|
|:gf|eaag aeeg|eaag e2 df|gaeg dgBd|egdg BdGB|
[1 eaag aeef|eaag a2 ef|gaag egBd|eAAG A2:|
[2 e2 de Aece|AeBd g2 c’a|gaag egBd|eAAG A2||

